!!!!SEGMENT: pl-kk--kk-i-382--015-002_anonim--nro-5-gloria.krn
!!!cenid: 18xx:1480
!!!COM: Anonim
!!!COM-rismID: pe30004985
!!!CDT:
!!!CNT:
!!!OPR: Nro 5
!!!OTL: Gloria
!!!OMV: 003
!!!PDT:
!!!AGN: Sacred
!!!SMS-siglum: PL-Kk
!!!SMS-shelfmark: Kk.I.382
!!!SMS-shelfwork: 005-003 M
!!!SMS-variant:
!!!SMS-altvar:
!!!NIFC-rismSourceID: 1001139027
!!!NIFC-rismChildID: 1001139098
!!!NIFC-islandoraID: pl-kk:6162
!!!URL-pdf-islandora: https://repozytorium.nifc.pl/islandora/object/pl-kk%3A6162/datastream/PDF/view
!!!URL-scan: https://polish.musicsources.pl/pl/lokalizacje/galeria/rekopisy/5994 @EN{Scan on Polish Music Sources Website} @PL{Skany w portalu Dziedzictwo Muzyki Polskiej w otwartym dostępie}
!!!ONB-nifc: UWAGA: obsada: S (T 1), A (B 1), T 2, B 2; S (T 1): skan 0014; A (B 1): skan 0159; T 2: skan 0086; B 2: skan 0231
!!!AIN: 1 alto 1 bass 2 tenor
!!!key:
**kern	**text	**kern	**text	**kern	**text	**kern	**text
*part4	*part4	*part3	*part3	*part2	*part2	*part1	*part1
*staff4	*staff4	*staff3	*staff3	*staff2	*staff2	*staff1	*staff1
*Ibass	*	*Itenor	*	*Ialto	*	*Itenor	*
*I"Basso II	*	*I"Tenore II	*	*I"Alto vel Basso I	*	*I"Soprano vel Tenore I	*
*I'B.	*	*I'T.	*	*I'A.	*	*I'S.	*
*clefF4	*	*clefC4	*	*clefC3	*	*clefC1	*
*k[]	*	*k[]	*	*k[]	*	*k[]	*
*C:	*	*C:	*	*C:	*	*C:	*
*M4/4	*	*M4/4	*	*M4/4	*	*M4/4	*
*met(c)	*	*met(c)	*	*met(c)	*	*met(c)	*
=1	=1	=1	=1	=1	=1	=1	=1
!	!	!	!	!	!	!LO:SIC:o:s:v=all\right	!
4c\	Et	4e\	Et	4g\	Et	4cc\	Et
4G\	in	4d\	in	4f\	in	4b\	in
(8E\L	ter-	4.c\	ter-	4.e\	ter-	4.g\	ter-
8C\J)	.	.	.	.	.	.	.
(8E\L	-ra	.	.	.	.	.	.
8G\J)	.	8d\	-ra	8f\	-ra	8b\	-ra
=2	=2	=2	=2	=2	=2	=2	=2
4c\	pax	4c\	pax	4e\	pax	4g\	pax
4F#X\	ho-	4c\	ho-	4a\	ho-	4dd\	ho-
8G\	-mi-	8.d\	-mi-	8.g\	-mi-	8.b\	-mi-
8G\	-ni-	.	.	.	.	.	.
.	.	16d\	-ni-	16g\	-ni-	16b\	-ni-
4G\	-bus	4d\	-bus	4g\	-bus	4b\	-bus
=3	=3	=3	=3	=3	=3	=3	=3
(8d\L	bo-	(8fn\L	bo-	4g\	bo-	4b\	bo-
8c\J)	.	8e\J)	.	.	.	.	.
(8B\L	-ne	4d\	-ne-	4f\	-ne	4b\	-ne-
8G\J)	.	.	.	.	.	.	.
(8c\L	vo-	4c\	-vo-	4e\	vo-	4g\	-vo-
8G\J)	.	.	.	.	.	.	.
(8E\L	-lun-	4c\	-lun-	4e\	-lun-	4g\	-lun-
8C\J)	.	.	.	.	.	.	.
=4	=4	=4	=4	=4	=4	=4	=4
!LO:TX:a:t=P:problem=mixed beam	!	!	!	!	!	!	!
(8F\L	ta-	(8A\L	-ta-	(4d\	-ta-	(4f/	-ta-
8D\	.	8B\	.	.	.	.	.
8G\	.	8c\	.	8e\L	.	4g/)	.
8GG/J)	.	8B\J)	.	8d\J)	.	.	.
4C/	-tis	4c\	-tis	4e\	-tis	4g/	-tis
!	!	!LO:SIC:o:s:v:=dopiski ołówkiem	!	!	!	!	!
4r	.	8ryy	.	8r	.	4r	.
!	!	!LO:LB:g=original	!	!	!	!	!
.	.	(16e\LL	lau-	(16g\LL	lau-	.	.
.	.	16d\JJ)	.	16f\JJ)	.	.	.
!LO:LB:g=original	!	!	!	!LO:LB:g=original	!	!LO:LB:g=original	!
=5	=5	=5	=5	=5	=5	=5	=5
2r	.	(8c\L	-da-	(8e\L	-da-	2r	.
.	.	8e\J)	.	8g\J)	.	.	.
.	.	(8d\L	-mus	(8f\L	-mus	.	.
.	.	8c\J)	.	8e\J)	.	.	.
8r	.	4B\	-te	8d\	te	8r	.
8G\	be-	.	.	8r	.	8b\	be-
8G\	-ne-	4r	.	4r	.	8b\	-ne-
8A\	-di-	.	.	.	.	8cc\	-di-
=6	=6	=6	=6	=6	=6	=6	=6
(8B\L	ci-	2r	.	2r	.	(8dd\L	-ci-
8G\J)	.	.	.	.	.	8b\J)	.
(8A\L	-mus-	.	.	.	.	(8cc\L	-mus
8B\J)	.	.	.	.	.	8dd\J)	.
4c\	-te	8r	.	8r	.	4ee\	te
.	.	16e\	a-	16g\	a-	.	.
.	.	16e\	-do-	16g\	-do-	.	.
4r	.	8d\	-ra-	8f\	-ra-	4r	.
.	.	8c\	-mus	8e\	-mus	.	.
=7	=7	=7	=7	=7	=7	=7	=7
8r	.	4B\	te	8d\	te	8r	.
8G\	glo-	.	.	8r	.	8b\	glo-
8A\	-ri-	4r	.	4r	.	8cc\	-ri-
8B\	-fi-	.	.	.	.	8dd\	-fi-
8c\	-ca-	2r	.	2r	.	8ee\	-ca-
8C/	-mus-	.	.	.	.	8ee\	-mus
4C/	-te	.	.	.	.	4ee\	te
!	!	!	!	!	!	!LO:LB:g=original	!
=8	=8	=8	=8	=8	=8	=8	=8
4r	.	4r	.	4r	.	4r	.
4F#X\	glo-	4c\	glo-	4d\	glo-	4a\	glo-
4G\	-ri-	4B\	-ri-	4d\	-ri-	4g\	-ri-
4F#\	-fi-	4c\	-fi-	4d\	-fi-	4a\	-fi-
!LO:LB:g=original	!	!	!	!	!	!	!
=9	=9	=9	=9	=9	=9	=9	=9
4G\	-ca-	4c\	-ca-	4d\	-ca-	4g\	-ca-
4GG/	-mus-	4B\	-mus	4d\	-mus	4g\	-mus
4C/	-te	4c\	te	4e\	te	4g\	te
4r	.	4r	.	4r	.	4r	.
!	!	!LO:LB:g=original	!	!LO:LB:g=original	!	!	!
=10	=10	=10	=10	=10	=10	=10	=10
(8C\L	gra-	(4e\	gra-	(4g\	gra-	4.cc\	gra-
8E\J)	.	.	.	.	.	.	.
!LO:TX:a:t=P:problem=mixed beam	!	!	!	!	!	!	!
(8G\L	-ti-	16e\LL	.	16g\LL	.	.	.
.	.	16f\JJ)	.	16a\JJ)	.	.	.
8GG/J)	.	(16e\LL	-ti-	(16g\LL	-ti-	8b\	-ti-
.	.	16d\JJ)	.	16f\JJ)	.	.	.
4C/	-as	4c\	-as	4e\	-as	4g\	-as
8r	.	8r	.	8r	.	8r	.
8C/	a-	8c\	a-	8e\	a-	8g\	a-
=11	=11	=11	=11	=11	=11	=11	=11
8G\	-gi-	8B\	-gi-	8d\	-gi-	8g\	-gi-
8G\	-mus	8c\	-mus-	8e\	-mus	8g\	-mus
4G\	ti-	4d\	-ti-	4f\	ti-	4b\	ti-
4C/	-bi	4c\	-bi	4e\	-bi	4g\	-bi
8r	.	8r	.	8r	.	8r	.
8C/	a-	8c\	a-	8e\	a-	8g\	a-
!	!	!	!	!	!	!LO:LB:g=original	!
=12	=12	=12	=12	=12	=12	=12	=12
8G\	-gi-	8B\	-gi-	8d\	-gi-	8g\	-gi-
8G\	-mus	8c\	-mus-	8e\	-mus	8g\	-mus
(8B\L	ti-	4d\	-ti-	4f\	ti-	(8g\L	ti-
8G\J)	.	.	.	.	.	8b\J)	.
4c\	-bi	4c\	-bi	4e\	-bi	4g\	-bi
4r	.	4r	.	8g\	prop-	4r	.
.	.	.	.	8g\	-ter	.	.
!LO:TX:b:t=V&colon;S&colon;	!	!	!	!	!	!	!
!LO:PB:g=original	!	!	!	!LO:LB:g=original	!	!	!
=13	=13	=13	=13	=13	=13	=13	=13
*	*	*	*	*2\right	*	*	*
(8d\L	prop-	(8f\L	prop-	2g\	mag-	(8b\L	pro-
8c\J)	.	8e\J)	.	.	.	8cc\J)	.
(8B\L	-ter	4d\	-ter	.	.	(8g\L	-pter
8G\J)	.	.	.	.	.	8b\J)	.
8c\	mag-	8e\	mag-	4g\	-nam	8cc\	mag-
8C/	-nam	8e\	-nam	.	.	8cc\	-nam
4r	.	4r	.	8g\	mag-	4r	.
.	.	.	.	8g\	-nam	.	.
!	!	!LO:LB:g=original	!	!	!	!	!
=14	=14	=14	=14	=14	=14	=14	=14
(8d\L	mag-	(8f\L	mag-	2.g\	glo-	(8b\L	ma-
8c\J)	.	8e\J)	.	.	.	8cc\J)	.
(8B\L	-nam	4d\	-nam	.	.	(8g\L	-gnam
8G\J)	.	.	.	.	.	8b\J)	.
(8c\L	glo-	4c\	glo-	.	.	4g\	glo-
8G\J)	.	.	.	.	.	.	.
8E\	-ri-	8e\	-ri-	8g\	-ri-	8cc\	-ri-
8C/	-am	8e\	-am	8g\	-am	8cc\	-am
!	!	!	!	!	!	!LO:LB:g=original	!
=15	=15	=15	=15	=15	=15	=15	=15
(4F\	tu-	4f\	tu-	(4a\	tu-	(4cc\	tu-
4G\)	.	4d\	.	4g\)	.	4b\)	.
2C/	-am	4e\	-am	4g\	-am	4cc\	-am,
.	.	4r	.	4r	.	4r	.
!	!	!	!	!LO:TX:b:t=V&colon;S&colon;	!	!	!
!	!	!	!	!LO:PB:g=original	!	!	!
=16|!	=16|!	=16|!	=16|!	=16|!	=16|!	=16|!	=16|!
*M3/4	*	*M3/4	*	*M3/4	*	*M3/4	*
*	*	*	*	*	*	*2\right	*
(4C/	Do-	4e\	Do-	4g\	Do-	2cc\	Do-
4E\)	.	(8e\L	-mi-	(8g\L	-mi-	.	.
.	.	8f\J)	.	8a\J)	.	.	.
8G\	-mi-	(8e\L	-ne	(8g\L	-ne	8cc\	-mi-
8G\	-ne	8d\J)	.	8f\J)	.	8b\	-ne
!LO:LB:g=original	!	!	!	!	!	!	!
=17	=17	=17	=17	=17	=17	=17	=17
4E\	De-	4c\	De-	4e\	De-	4g\	De-
4C/	-us	4c\	-us	4e\	-us	4g\	-us
8C/	rex	8e\	rex	8g\	rex	8g\	rex
8E\	ce-	8c\	ce-	8e\	ce-	8g\	ce-
!	!	!LO:TX:b:t=V&colon;S&colon;	!	!	!	!	!
!	!	!LO:PB:g=original	!	!	!	!	!
=18	=18	=18	=18	=18	=18	=18	=18
4G\	-les-	4c\	-les-	4e\	-les-	4g\	-les-
4G\	-tis	4B\	-tis	4d\	-tis	4g\	-tis
8G\	De-	8B\	De-	8d\	De-	8g\	De-
8G\	-us	8c\	-us	8e\	-us	8g\	-us
!	!	!	!	!	!	!LO:LB:g=original	!
=19	=19	=19	=19	=19	=19	=19	=19
*	*	*2\right	*	*	*	*	*
(8B\L	pa-	2d\	pa-	2f\	pa-	2g\	pa-
8G\	.	.	.	.	.	.	.
8A\	.	.	.	.	.	.	.
8B\J)	.	.	.	.	.	.	.
4c\	-ter	4c\	-ter	4e\	-ter	4g\	-ter
=20	=20	=20	=20	=20	=20	=20	=20
(8A\L	om-	(8c\L	om-	(8e\L	om-	4g\	om-
8F\J)	.	8d\J)	.	8f\J)	.	.	.
4G\	-ni-	4c\	-ni-	4e\	-ni-	4g\	-ni-
4GG/	-po-	4B\	-po-	4d\	-po-	4g\	-po-
!	!	!	!	!LO:LB:g=original	!	!	!
=21	=21	=21	=21	=21	=21	=21	=21
4C/	-tens	4c\	-tens	4e\	-tens	4g\	-tens
(8A\L	Do-	(8c\L	Do-	4e\	Do-	(8cc\L	Do-
8c\J)	.	8e\J)	.	.	.	8ee\J)	.
8G#X\	-mi-	8d\	-mi-	8e\	-mi-	8dd\	-mi-
8A\	-ne	8c\	-ne	8e\	-ne	8cc\	-ne
!LO:LB:g=original	!	!	!	!	!	!	!
=22	=22	=22	=22	=22	=22	=22	=22
8G#X\	fi-	8B\	fi-	8e\	fi-	8b\	fi-
8A\	-li	8c\	-li	8e\	-li	8cc\	-li
(8B\L	u-	(8d\L	u-	4e\	u-	(8dd\L	u-
8A\J)	.	8c\J)	.	.	.	8cc\J)	.
(8G#\L	-ni-	4B\	-ni-	4e\	-ni	4b\	-ni-
8E\J)	.	.	.	.	.	.	.
!	!	!	!	!	!	!LO:TX:b:t=V&colon;S&colon;	!
!	!	!LO:LB:g=original	!	!	!	!LO:PB:g=original	!
=23	=23	=23	=23	=23	=23	=23	=23
4.A\	-ge-	4.c\	-ge-	4.e\	ge-	4.cc\	-ge-
8A\	-ni-	8c\	-ni-	8e\	-ni-	8cc\	-ni-
4A\	-te	4c\	-te	4e\	-te	4cc\	-te
=24	=24	=24	=24	=24	=24	=24	=24
*2\right	*	*	*	*	*	*	*
2G#X\	Je-	2d\	Je-	2f\	Je-	2b\	Je-
4A\	-su	4c\	-su	4e\	-su	4a\	-su
=25	=25	=25	=25	=25	=25	=25	=25
(4D\	Chri-	4B\	Chri-	(4f\	Chri-	(4g#X\	Chri-
2E\)	.	4c\	.	2e\)	.	4a\	.
.	.	4B\	.	.	.	4g#\)	.
=26	=26	=26	=26	=26	=26	=26	=26
4AA/	-ste	4c\	-ste	4e\	-ste	4a\	-ste
!	!	!	!	!LO:LB:g=original	!	!	!
4G\	Do-	8c#X\	Do-	4e\	Do-	4a\	Do-
.	.	8c#\	-mi-	.	.	.	.
8G\	-mi-	4c#\	-ne	8e\	-mi-	8a\	-mi-
8G\	-ne	.	.	8e\	-ne	8a\	-ne
=27	=27	=27	=27	=27	=27	=27	=27
(8F\L	De-	(8d\L	De-	(8f\L	De-	(8a\L	De-
8E\J)	.	8e\J)	.	8g\J)	.	8cc#X\J)	.
4D\	-us	4f\	-us	4a\	-us	4dd\	-us
4r	.	4r	.	4r	.	4r	.
!LO:LB:g=original	!	!	!	!	!	!	!
=28	=28	=28	=28	=28	=28	=28	=28
2F\	A-	2B\	a-	2d\	ag-	2g\	a-
4F\	-gnus	4B\	-gnus	4d\	-nus	4g\	-gnus
!	!	!LO:LB:g=original	!	!	!	!LO:LB:g=original	!
=29	=29	=29	=29	=29	=29	=29	=29
(8E\L	De-	(8cn\L	De-	(8e\L	De-	(8g\L	De-
8D\J)	.	8d\J)	.	8f\J)	.	8b\J)	.
4C/	-i	4e\	-i	4g\	-i	4cc\	-i
4r	.	4r	.	4r	.	4r	.
=30	=30	=30	=30	=30	=30	=30	=30
(8G\L	fi-	(8B\L	fi-	2g\	fi-	(8dd\L	fi-
8A\J)	.	8c\J)	.	.	.	8cc\J)	.
(8B\L	-li-	(8d\L	-li-	.	.	(8b\L	-li-
8A\J)	.	8c\J)	.	.	.	8cc\J)	.
(8B\L	-us	(8d\L	-us	8g\	-li-	(8b\L	-us
8G\J)	.	8B\J)	.	8g\	-us	8dd\J)	.
=31	=31	=31	=31	=31	=31	=31	=31
(8c\L	fi-	2.c\	fi-	(2.g\	pa-	(2.ee\	pa-
8G\J)	.	.	.	.	.	.	.
(8E\L	-li-	.	.	.	.	.	.
8G\J)	.	.	.	.	.	.	.
(8E\L	-us	.	.	.	.	.	.
8C\J)	.	.	.	.	.	.	.
=32	=32	=32	=32	=32	=32	=32	=32
(16G\LL	pa-	8A\	-li-	4a\	.	4dd\)	.
16F\	.	.	.	.	.	.	.
16E\	.	8d\	-us	.	.	.	.
16F\JJ	.	.	.	.	.	.	.
4G\	.	4c\	pa-	2g\)	.	4ee\	.
4GG/)	.	4B\	.	.	.	4dd\	.
=33	=33	=33	=33	=33	=33	=33	=33
2.C/	-tris	2.c\	-tris	2g\	-tris	2.ee\	-tris.
.	.	.	.	4r	.	.	.
*	*	*	*	*	*	*k[b-e-a-]	*
*	*	*	*	*	*	*M2/4	*
!LO:LB:g=original	!	!	!	!LO:LB:g=original	!	!LO:LB:g=original	!
=34|!	=34|!	=34|!	=34|!	=34|!	=34|!	=34|!	=34|!
*k[b-e-a-]	*	*k[b-e-a-]	*	*k[b-e-a-]	*	*k[b-e-a-]	*
*M2/4	*	*M2/4	*	*M2/4	*	*M2/4	*
!	!	!LO:N:vis=16	!	!	!	!	!
16C/	qui-	(32G\LLL	qui-	16e-\	Qui-	16cc\	Qui-
!	!	!LO:N:vis=16	!	!	!	!	!
.	.	32c\JJJ)	.	.	.	.	.
=	=	=	=	=	=	=	=
4G\	-tol-	4c\	-tol-	4e-\	-tol-	4g\	-tol-
8GG/	-lis	8Bn\	-lis	8d\	-lis	8g\	-lis
16r	.	(16G\LL	qui-	16r	.	16r	.
16G\	pec-	16d\JJ)	.	16f\	pec-	16bn\	pec-
!	!	!LO:LB:g=original	!	!	!	!	!
=35	=35	=35	=35	=35	=35	=35	=35
4G\	-ca-	4d\	-tol-	4f\	-ca-	4bn\	-ca-
8c\	-ta	8c\	-lis	8e-\	-ta	8g\	-ta
8c\	pe-	(16c\LL	pe-	16r	.	16r	.
.	.	16e-X\JJ)	.	16g\	pec-	16g\	pec-
=36	=36	=36	=36	=36	=36	=36	=36
4c\	-ca-	(8e-\L	-ca-	(8g\L	-ca-	4cc\	-ca-
.	.	16f\L	.	16a-\L	.	.	.
.	.	16e-\JJ)	.	16g\JJ)	.	.	.
(8Bn\L	-ta	(8d\L	-ta	(8f\L	-ta	4g\	-ta
8c\J)	.	8c\J)	.	8e-\J)	.	.	.
=37	=37	=37	=37	=37	=37	=37	=37
4G\	mun-	4c\	mun-	4e-\	mun-	4g\	mun-
4GG/	-di	4Bn\	-di	4d\	-di	4g\	-di
=38	=38	=38	=38	=38	=38	=38	=38
4E-\	mi-	4e-\	mi-	4g\	mi-	4b-X\	mi-
4E-\	-se-	4B-X\	-se-	4g\	-se-	4ee-X\	-se-
!	!	!	!	!	!	!LO:LB:g=original	!
=39	=39	=39	=39	=39	=39	=39	=39
4D\	-re-	4B-\	-re-	4a-\	-re-	4dd\	-re-
(8E-\L	-re	(8B-\L	-re	(8g\L	-re	4b-\	-re
8D\J)	.	8A-\J)	.	8f\J)	.	.	.
!LO:LB:g=original	!	!	!	!LO:LB:g=original	!	!	!
=40	=40	=40	=40	=40	=40	=40	=40
4.E-\	no-	(8G\L	no-	8e-\	no-	4.b-\	no-
.	.	8B-\	.	4g\	.	.	.
.	.	8e-\	.	.	.	.	.
8A-\	.	8f\J	.	8a-\	.	8cc\	.
=41	=41	=41	=41	=41	=41	=41	=41
4B-\	.	4e-\	.	4g\	.	2b-\	.
4BB-/	.	4d\)	.	4f\	.	.	.
=42	=42	=42	=42	=42	=42	=42	=42
4E-\	-bis	4e-\	-bis	4g\	-bis	4b-\	-bis
8r	.	8r	.	8.r	.	8.r	.
16r	.	(16B-\LL	qui-	.	.	.	.
16E-\	qui-	16e-\JJ)	.	16g\	qui-	16b-\	qui
!	!	!LO:LB:g=original	!	!	!	!	!
=43	=43	=43	=43	=43	=43	=43	=43
4B-\	-tol-	4e-\	-tol-	4g\	-tol-	4b-\	tol-
8BB-/	-lis	8d\	-lis	8f\	-lis	8b-\	-lis
16r	.	(16B-\LL	qui-	16r	.	16r	.
16BB-/	pe-	16f\JJ)	.	16a-\	pec-	16dd\	pec-
=44	=44	=44	=44	=44	=44	=44	=44
4BB-/	-ca-	4f\	-tol-	4a-\	-ca-	4dd\	-ca-
8E-\	-ta	8e-\	-lis	8g\	-ta	4b-\	-ta
8E-\	pe-	8B-\	pec-	8g\	pec-	.	.
=45	=45	=45	=45	=45	=45	=45	=45
!	!	!	!	!	!	!LO:TX:b:t=2.	!
!	!	!	!	!	!	!LO:N:vis=0	!
4E-\	-ca-	8B-\L	-ca-	(8g\L	-ca-	1r	.
.	.	16c\L	.	16a-\L	.	.	.
.	.	16B-\JJ	.	16g\JJ)	.	.	.
(8D\L	-ta	(8A-/L	-ta	(8f\L	-ta	.	.
8E-\J)	.	8G/J)	.	8e-\J)	.	.	.
=46	=46	=46	=46	=46	=46	=46	=46
4BB-/	mun-	(8.B-\L	mun-	(8.g\L	mun-	.	.
.	.	32A-\LL	.	32f\LL	.	.	.
.	.	32G\JJJ)	.	32e-\JJJ)	.	.	.
8BB-/	-di	8F/	-di	4d\	-di	.	.
8r	.	8r	.	.	.	.	.
!LO:LB:g=original	!	!	!	!LO:LB:g=original	!	!LO:LB:g=original	!
=47	=47	=47	=47	=47	=47	=47	=47
4E-\	su-	8.B-\L	se-	(4g\	Su-	(8.g\L	su-
.	.	16c\Jk	.	.	.	16a-X\Jk)	.
(8G\L	-sci-	16d-X\LL	-sci-	8e-\)	.	16b-\LL	-sci-
.	.	16f\	.	.	.	16dd-X\	.
8E-\J)	.	16e-\	.	8g\	-sci-	16cc\	.
.	.	16d-\JJ	.	.	.	16b-\JJ	.
=48	=48	=48	=48	=48	=48	=48	=48
4A-\	-pe	4c\	-pe	4e-\	-pe	4a-X\	-pe
4r	.	4r	.	4r	.	4r	.
!	!	!LO:LB:g=original	!	!	!	!	!
=49	=49	=49	=49	=49	=49	=49	=49
4F\	su-	(8.c\L	su-	[4f\	su-	(8.an\L	su-
.	.	16dn\Jk)	.	.	.	16b-\Jk)	.
(8An\L	-sci-	16e-\LL	-sci-	8f\]	.	16cc\LL	-sci-
.	.	16g\	.	.	.	16ee-\	.
8F\J)	.	16f\	.	8an\	-sci-	16dd\	.
.	.	16e-\JJ	.	.	.	16cc\JJ	.
=50	=50	=50	=50	=50	=50	=50	=50
4B-\	-pe	4d\	-pe	4f\	-pe	4b-\	-pe
4r	.	4r	.	4r	.	4r	.
=51	=51	=51	=51	=51	=51	=51	=51
!	!	!LO:TX:a:t=1.	!	!LO:TX:b:t=1.	!	!LO:TX:b:t=2.	!
!	!	!	!	!	!	!LO:N:vis=0	!
8BB-/	su-	2r	.	2r	.	1r	.
16B-\	-sci-	.	.	.	.	.	.
16B-\	-pe	.	.	.	.	.	.
8B-\	de-	.	.	.	.	.	.
8B-\	-pre-	.	.	.	.	.	.
=52	=52	=52	=52	=52	=52	=52	=52
(4B-\	-ca-	8c\	sus-	4r	.	.	.
.	.	16c\	-ci-	.	.	.	.
.	.	16c\	-pe	.	.	.	.
4An\	.	8c\	de-	8e-\	de-	.	.
.	.	8c\	-pre-	8e-\	-pre-	.	.
=53	=53	=53	=53	=53	=53	=53	=53
4A-X\)	.	4B-\	-ca-	4f\	-ca-	8dd\	de-
.	.	.	.	.	.	8dd\	-pre-
4G\	-ti-	4B-\	-ti-	4e-\	-ti-	8ee-\	-ca-
.	.	.	.	.	.	8ee-\	-ti-
!LO:LB:g=original	!	!	!	!	!	!LO:LB:g=original	!
=54	=54	=54	=54	=54	=54	=54	=54
4.G-X\	-o-	4.B-\	-o-	4.e-\	-o-	4.b-\	-o-
16F\LL	-nem	8B-\	-nem-	8e-\	-nem	8b-\	-nem
16E-\JJ	.	.	.	.	.	.	.
=55	=55	=55	=55	=55	=55	=55	=55
8E-\L	no-	2G-X/	-nos-	2e-\	no-	(8b-\L	no-
8c-X\	.	.	.	.	.	8an\	.
8B-\	.	.	.	.	.	8b-\	.
8An\J	.	.	.	.	.	8cc\J)	.
!	!	!	!	!LO:LB:g=original	!	!	!
=56	=56	=56	=56	=56	=56	=56	=56
4B-;\	-stram	4F;/	-tram	4d;\	-stram	4.b-;\	-stram
8r	.	4r	.	4r	.	.	.
16B-\LL	qui	.	.	.	.	8r	.
16Gn\JJ	.	.	.	.	.	.	.
!	!	!LO:LB:g=original	!	!	!	!	!
=57	=57	=57	=57	=57	=57	=57	=57
4En\	se-	4r	.	4r	.	4r	.
8E\	-des	8r	.	8r	.	8r	.
8E\	ad	8G/	ad	8c\	ad	8b-\	ad
=58	=58	=58	=58	=58	=58	=58	=58
8.F\	dex-	8.A-\	dex-	8.c\	dex-	8.cc\	dex-
16G\	-te-	16B-\	-te-	16en\	-te-	16b-\	-te-
4A-\	-ram	4c\	-ram	4f\	-ram	4a-X\	-ram
=59	=59	=59	=59	=59	=59	=59	=59
(4A-\	pa-	(4c\	pa-	(4f\	pa-	4f/	pa-
8G\L	.	8B-\L	.	8en\L	.	4cc\	.
8F\J)	.	8A-\J)	.	8f\J)	.	.	.
!LO:LB:g=original	!	!	!	!	!	!	!
=60	=60	=60	=60	=60	=60	=60	=60
4C/	-tris	4G/	-tris	4en\	-tris	4cc\	-tris
4r	.	4r	.	4r	.	4r	.
!	!	!	!	!	!	!LO:LB:g=original	!
=61	=61	=61	=61	=61	=61	=61	=61
(4C/	mi-	(2G/	mi-	4en\	mi-	(2b-\	mi-
4En\	.	.	.	4c\	-se-	.	.
=62	=62	=62	=62	=62	=62	=62	=62
4G\)	.	4B-\)	.	4en\	-re-	4dd-X\)	.
4B-\	-se-	4G/	-se-	4g\	-re	4een\	-se-
=63	=63	=63	=63	=63	=63	=63	=63
4d-X\	-re-	(4B-\	-re-	4b-X\	mi-	2een\	-re-
4B-\	.	4G/)	.	4g\	-se-	.	.
!	!	!	!	!LO:LB:g=original	!	!	!
=64	=64	=64	=64	=64	=64	=64	=64
4G\	-re	(4B-\	-re	4en\	-re-	2cc\	-re
4En\	.	4G/)	.	4g\	-re	.	.
=65	=65	=65	=65	=65	=65	=65	=65
2F\	mi-	2A-\	mi-	2a-X\	mi-	2cc\	mi-
=66	=66	=66	=66	=66	=66	=66	=66
2D-X\	-se-	2A-\	-se-	2f\	-se-	2dd-X\	-se-
!	!	!LO:LB:g=original	!	!	!	!	!
=67	=67	=67	=67	=67	=67	=67	=67
2BB-/	-re-	2B-\	-re-	2f\	-re-	2dd-X\	-re-
=68	=68	=68	=68	=68	=68	=68	=68
2BBn/	-re	2F/	-re	2a-X\	-re	2ddn\	-re
=69	=69	=69	=69	=69	=69	=69	=69
2C/	no-	4F/	no-	(4a-\	no-	2cc\	no-
.	.	4B-\	.	4g\)	.	.	.
=70	=70	=70	=70	=70	=70	=70	=70
2F\	-bis	2An\	-bis	2f\	-bis	2cc\	-bis
*	*	*	*	*	*	*k[]	*
*	*	*	*	*	*	*M4/4	*
*	*	*	*	*	*	*met(c)	*
!LO:LB:g=original	!	!	!	!	!	!LO:LB:g=original	!
=71|!	=71|!	=71|!	=71|!	=71|!	=71|!	=71|!	=71|!
*k[]	*	*k[]	*	*k[]	*	*k[]	*
*M4/4	*	*M4/4	*	*M4/4	*	*M4/4	*
*met(c)	*	*met(c)	*	*met(c)	*	*met(c)	*
(8C\L	quo-	4c\	Quo-	4e\	Quo-	4.g\	Quo-
8E\J)	.	.	.	.	.	.	.
!LO:TX:a:t=P:problem=mixed beam	!	!	!	!	!	!	!
(8G\L	-ni-	4B\	-ni-	4d\	-ni-	.	.
8GG/J)	.	.	.	.	.	8g\	-ni-
4C/	-am	4c\	-am	4e\	-am	4g\	-am
4r	.	4r	.	8r	.	4r	.
.	.	.	.	(16c\LL	tu	.	.
.	.	.	.	16e\JJ)	.	.	.
!	!	!	!	!LO:LB:g=original	!	!	!
=72	=72	=72	=72	=72	=72	=72	=72
8r	.	8r	.	8g\	-so-	8r	.
8C/	tu	8e\	tu	8g\	-lus	8cc\	tu
8E\	so-	8e\	so-	8g\	so-	8cc\	so-
8C/	-lus	(16d\LL	-lus	(16f\LL	-lus	8cc\	-lus
.	.	16c\JJ)	.	16e\JJ)	.	.	.
8G\	san-	8B\	san-	8d\	san-	8g\	san-
8G\	-ctus	8B\	-ctus	8d\	-ctus	8g\	-ctus
8r	.	8r	.	8r	.	8r	.
8GG/	tu	(16B\LL	tu	(16d\LL	tu	8g\	tu
.	.	16c\JJ)	.	16e\JJ)	.	.	.
!	!	!LO:LB:g=original	!	!	!	!	!
=73	=73	=73	=73	=73	=73	=73	=73
8G\	so-	8d\	so-	8f\	so-	8bn\	so-
8G\	-lus	8d\	-lus	8f\	-lus	8b\	-lus
8G\	Do-	8d\	do-	8f\	Do-	8b\	Do-
8GG/	-mi-	(16c\LL	-mi-	(16e\LL	-mi-	8g\	-mi-
.	.	16B\JJ)	.	16d\JJ)	.	.	.
!	!	!	!	!	!	!LO:LB:g=original	!
4C/	-nus	4c\	-nus	4e\	nus	4g\	-nus
8r	.	8r	.	8r	.	8r	.
8C/	tu	8e\	tu	8g\	tu	8cc\	tu
!LO:TX:b:t=V&colon;S&colon;	!	!	!	!	!	!	!
!LO:PB:g=original	!	!	!	!	!	!	!
=74	=74	=74	=74	=74	=74	=74	=74
4C/	so-	4e\	so-	4g\	so-	4cc\	so-
8BB/	-lus	8d\	-lus	8f\	-lus	8g\	-lus
8C/	al-	8c\	al-	8e\	al-	8g\	al-
!	!	!	!	!LO:LB:g=original	!	!	!
8.G\	-tis-	8.d\	-tis-	8.f\	-tis-	8.b\	-tis-
16G\	-si-	16d\	-si-	16f\	-si-	16b\	-si-
4G\	-mus	8d\	-mus	8f\	-mus	4b\	-mus
.	.	8r	.	8r	.	.	.
=75	=75	=75	=75	=75	=75	=75	=75
8C/	Je-	(16c\LL	Je-	(16e\LL	Je-	8g\	Je-
.	.	16e\JJ)	.	16g\JJ)	-su-	.	.
8F\	-su	(16f\LL	-su	(16a\LL	-s	8a\	-su
.	.	16d\JJ)	.	16f\JJ)	.	.	.
!LO:TX:a:t=P:problem=mixed beam	!	!	!	!	!	!	!
8G\L	Chri-	(8c\L	Chri-	(8e\L	Chris-	4g\	Chri-
8GG/J	.	8B\J)	.	8d\J)	.	.	.
4C/	-ste	4c\	-ste	4e\	-ste	4g\	-ste
8r	.	8r	.	8r	.	8r	.
8C/	cum	8c\	cum	8e\	cum	8g\	cum
!	!	!LO:LB:g=original	!	!	!	!LO:LB:g=original	!
=76	=76	=76	=76	=76	=76	=76	=76
4C/	san-	4c\	san-	4e\	san-	4g\	san-
8C/	-cto	8G/	-cto	8d\	-cto	8g\	-cto
8C/	cum	8e\	cum	8g\	cumcsancto	8cc\	cum
4C/	san-	4e\	san-	4g\	.	4cc\	san-
4C/	-cto	4c\	-cto	4e\	.	4g\	-cto
!	!	!	!	!LO:TX:b:t=V&colon;S&colon;	!	!	!
!LO:LB:g=original	!	!	!	!LO:PB:g=original	!	!	!
=77	=77	=77	=77	=77	=77	=77	=77
4.G\	spi-	(16B\LL	spi-	16d\LL	spi-	4g\	spi-
.	.	16d\	.	16f\	.	.	.
.	.	16c\	.	16e\	.	.	.
.	.	16e\JJ)	.	16g\JJ	.	.	.
.	.	(8.e\L	-ri-	8.f\	.	4b\	-ri-
8G\	-ri-	.	.	.	.	.	.
.	.	16d\Jk)	.	16f\	-ri-	.	.
4C/	-tu	4c\	-tu	4e\	-tu	4g\	-tu
8r	.	8r	.	8r	.	8r	.
8C/	in	8c\	in	8e\	in	8g\	in
=78	=78	=78	=78	=78	=78	=78	=78
4.G\	glo-	(16B\LL	glo-	16d\LL	glo-	4.g\	glo-
.	.	16c\	.	16e\	.	.	.
.	.	16B\	.	16d\	.	.	.
.	.	16c\JJ)	.	16e\JJ	.	.	.
.	.	(16e\LL	-ri-	16g\LL	.	.	.
.	.	16d\	.	16f\JJ	.	.	.
8G\	-ri-	16c\	.	16e\LL	-ri-	8g\	-ri-
.	.	16B\JJ)	.	16d\JJ	.	.	.
(8C/L	-a	8c\	-a	8e\	-a	8g\	-a
8E/J)	.	8r	.	8r	.	8gg\	De-
8D/	De-	4r	.	4r	.	(8ff\L	-i
8C/	-i	.	.	.	.	8ee\J)	.
!	!	!LO:TX:b:t=V&colon;S&colon;	!	!	!	!	!
!	!	!LO:PB:g=original	!	!	!	!LO:LB:g=original	!
=79	=79	=79	=79	=79	=79	=79	=79
8G\	pa-	8r	.	8r	.	8dd\	pa-
8G\	-tris	8B\	De-	8d\	De-	8dd\	-tris
4r	.	(8c\L	-i	(8e\L	-i	4r	.
.	.	8d\J)	.	8f\J)	.	.	.
8C/	a-	8c\	pa-	8e\	pa-	8g\	a-
8C/	-men	8c\	-tris	8e\	-tris	8g\	-men
4r	.	4r	.	4r	.	4r	.
!	!	!	!	!LO:LB:g=original	!	!	!
=80	=80	=80	=80	=80	=80	=80	=80
!LO:TX:a:t=P:problem=mixed beam	!	!	!	!	!	!	!
(8GG/L	a-	(8B\L	a-	8d\L	a-	4.g\	a-
8G\J)	.	8c\J)	.	8e\J	.	.	.
(8B\L	-men	(16e\LL	-men	16g\LL	.	.	.
.	.	16d\	.	16f\	.	.	.
8G\J)	.	16c\)	.	16e\	.	8g\	-men
.	.	16B\JJ	.	16d\JJ	.	.	.
!LO:LB:g=original	!	!	!	!	!	!	!
(8c\L	a-	(8c\L	a-	8e\L	.	4g\	a-
8G\J)	.	8d\J)	.	8f\J	.	.	.
(8E\L	-men	4e\	-men	4g\	-men	4cc\	-men
8C\J)	.	.	.	.	.	.	.
=81	=81	=81	=81	=81	=81	=81	=81
(4F\	a-	16d\LL	a-	16f\LL	a-	(4a\	a-
.	.	16e\	.	16g\	.	.	.
.	.	16f\	.	16a\	.	.	.
.	.	16d\JJ	.	16f\JJ	.	.	.
4G\)	.	8c\L	.	8e\L	.	4g\)	.
.	.	8B\J	.	8d\J	.	.	.
4C/	-men	4c\	-men	4e\	men	4g\	-men
4GG/	a-	4B\	a-	4d\	a-	4g\	a-
=82	=82	=82	=82	=82	=82	=82	=82
1C/	-men	1c\	-men	1e\	-men	1g\	-men
==	==	==	==	==	==	==	==
*-	*-	*-	*-	*-	*-	*-	*-
!!!system-decoration: [(s1,s2,s3,s4)]
!!!EED: Leszek Kubiak
!!!EEV: 2021-02-03
!!!ENC: Berenika Jozajtis
!!!END: 2021-01-28
!!!YEC: Copyright 2022 Narodowy Instytut Fryderyka Chopina (https://polishscores.org)
!!!YEM: License CC-BY-4.0 (https://creativecommons.org/licenses/by/4.0)
